assets/images/dry_icon.svg

<svg height="193" viewBox="0 0 193 193" width="193" xmlns="http://www.w3.org/2000/svg" xmlns:xlink="http://www.w3.org/1999/xlink"><defs><path id="a" d="m119.276993 23.2774066v16.5263645l11.686455-11.685394c9.084088-9.0855742 23.834511-9.0855742 32.918812 0 9.084088 9.0834519 9.084088 23.8334497 0 32.9190239l-11.686456 11.685394h16.527002c12.846929 0 23.277194 10.4311136 23.277194 23.2774066 0 12.8462934-10.430265 23.2774064-23.277194 23.2774064h-16.527002l11.686456 11.685394c9.084088 9.085574 9.084088 23.835572 0 32.919024-9.084301 9.085574-23.834724 9.085574-32.918812 0l-11.686455-11.685394v16.526365c0 12.846293-10.430053 23.277406-23.2769824 23.277406-12.847142 0-23.2771944-10.431113-23.2771944-23.277406v-16.526365l-11.6862429 11.685394c-9.0843008 9.085574-23.8347231 9.085574-32.9188116 0-9.0843008-9.083452-9.0843008-23.83345 0-32.919024l11.6862428-11.685394h-16.5267889c-12.847142 0-23.2772156-10.431113-23.2772156-23.2774064 0-12.846293 10.4300736-23.2774066 23.2772156-23.2774066h16.5267889l-11.6862428-11.685394c-9.0843008-9.0855742-9.0843008-23.835572 0-32.9190239 9.0840885-9.0855742 23.8345108-9.0855742 32.9188116 0l11.6862429 11.685394v-16.5263645c0-12.846293 10.4300524-23.2774066 23.2771944-23.2774066 12.8469294 0 23.2769824 10.4311136 23.2769824 23.2774066z"/></defs><g fill="none" fill-rule="evenodd" transform="translate(.4498 .24)" xlink:href="#a"><path d="m39.8040045 119.277608h-16.5267889c-12.847142 0-23.2772156-10.431113-23.2772156-23.2774064 0-12.846293 10.4300736-23.2774066 23.2772156-23.2774066h16.5267889l-11.6862428-11.685394c-9.0843008-9.0855742-9.0843008-23.835572 0-32.9190239 9.0840885-9.0855742 23.8345108-9.0855742 32.9188116 0l11.6862429 11.685394v-16.5263645c0-12.846293 10.4300524-23.2774066 23.2771944-23.2774066 12.8469294 0 23.2769824 10.4311136 23.2769824 23.2774066v16.5263645l11.686455-11.685394c9.084088-9.0855742 23.834511-9.0855742 32.918812 0 9.084088 9.0834519 9.084088 23.8334497 0 32.9190239l-11.686456 11.685394h16.527002c12.846929 0 23.277194 10.4311136 23.277194 23.2774066 0 12.8462934-10.430265 23.2774064-23.277194 23.2774064h-16.527002l11.686456 11.685394c9.084088 9.085574 9.084088 23.835572 0 32.919024-9.084301 9.085574-23.834724 9.085574-32.918812 0l-11.686455-11.685394v16.526365c0 12.846293-10.430053 23.277406-23.2769824 23.277406-12.847142 0-23.2771944-10.431113-23.2771944-23.277406v-16.526365l-11.6862429 11.685394c-9.0843008 9.085574-23.8347231 9.085574-32.9188116 0-9.0843008-9.083452-9.0843008-23.83345 0-32.919024z" fill="#ff8000"/><path d="m97.3026795 50.5171508c23.8935105 0 43.2921985 19.3978389 43.2921985 43.2928353 0 23.8928739-19.398688 43.2928349-43.2921985 43.2928349-23.8937231 0-43.2924109-19.399961-43.2924109-43.2928349 0-23.8949964 19.3986878-43.2928353 43.2924109-43.2928353z" fill="#ffc266"/><g fill="#000"><path d="m74.8296253 85.3568579c-1.4505934-.7788848-1.9962372-2.5892083-1.2177768-4.0387404.778248-1.4516545 2.5879348-1.9970861 4.0385281-1.2182013l13.0360269 6.9951069c.9732876.5220862 1.5783559 1.5407911 1.5722477 2.6443881-.0062012 1.1057192-.6223054 2.1159349-1.6015355 2.6274097l-12.8864045 6.7319414c-1.4590826.7640287-3.2626147.1973741-4.0247333-1.2627696-.7623308-1.4580214-.1965251-3.2619779 1.2625574-4.0238843l7.8934773-4.1236325z"/><path d="m116.95477 80.0999162c1.450593-.7788848 3.26028-.2334532 4.038528 1.2182013.778461 1.4495321.232817 3.2598556-1.217777 4.0387404l-8.072387 4.331618 7.893477 4.1236325c1.459083.7619064 2.024889 2.5658629 1.262558 4.0238843-.762119 1.4601437-2.565651 2.0267983-4.024733 1.2627696l-12.886405-6.7319414c-.97923-.5114748-1.595334-1.5216905-1.601535-2.6274097-.006109-1.103597.59896-2.1223019 1.572247-2.6443881z"/></g></g></svg>

<?xml version="1.0" encoding="UTF-8"?>
<svg width="193px" height="193px" viewBox="0 0 193 193" version="1.1" xmlns="http://www.w3.org/2000/svg" xmlns:xlink="http://www.w3.org/1999/xlink">
    <title>dry_icon</title>
    <defs>
        <path d="M119.276993,23.2774066 L119.276993,39.8037711 L130.963448,28.1183771 C140.047536,19.0328029 154.797959,19.0328029 163.88226,28.1183771 C172.966348,37.201829 172.966348,51.9518268 163.88226,61.037401 L152.195804,72.722795 L168.722806,72.722795 C181.569735,72.722795 192,83.1539086 192,96.0002016 C192,108.846495 181.569735,119.277608 168.722806,119.277608 L152.195804,119.277608 L163.88226,130.963002 C172.966348,140.048576 172.966348,154.798574 163.88226,163.882026 C154.797959,172.9676 140.047536,172.9676 130.963448,163.882026 L119.276993,152.196632 L119.276993,168.722997 C119.276993,181.56929 108.84694,192.000403 96.0000106,192.000403 C83.1528686,192.000403 72.7228162,181.56929 72.7228162,168.722997 L72.7228162,152.196632 L61.0365733,163.882026 C51.9522725,172.9676 37.2018502,172.9676 28.1177617,163.882026 C19.0334609,154.798574 19.0334609,140.048576 28.1177617,130.963002 L39.8040045,119.277608 L23.2772156,119.277608 C10.4300736,119.277608 0,108.846495 0,96.0002016 C0,83.1539086 10.4300736,72.722795 23.2772156,72.722795 L39.8040045,72.722795 L28.1177617,61.037401 C19.0334609,51.9518268 19.0334609,37.201829 28.1177617,28.1183771 C37.2018502,19.0328029 51.9522725,19.0328029 61.0365733,28.1183771 L72.7228162,39.8037711 L72.7228162,23.2774066 C72.7228162,10.4311136 83.1528686,0 96.0000106,0 C108.84694,0 119.276993,10.4311136 119.276993,23.2774066 Z" id="path-1"></path>
    </defs>
    <g id="dry_icon" stroke="none" fill="none" transform="translate(0.4498, 0.24)" xlink:href="#path-1" fill-rule="evenodd">
        <path d="M39.8040045,119.277608 L23.2772156,119.277608 C10.4300736,119.277608 0,108.846495 0,96.0002016 C0,83.1539086 10.4300736,72.722795 23.2772156,72.722795 L39.8040045,72.722795 L28.1177617,61.037401 C19.0334609,51.9518268 19.0334609,37.201829 28.1177617,28.1183771 C37.2018502,19.0328029 51.9522725,19.0328029 61.0365733,28.1183771 L72.7228162,39.8037711 L72.7228162,23.2774066 C72.7228162,10.4311136 83.1528686,0 96.0000106,0 C108.84694,0 119.276993,10.4311136 119.276993,23.2774066 L119.276993,39.8037711 L130.963448,28.1183771 C140.047536,19.0328029 154.797959,19.0328029 163.88226,28.1183771 C172.966348,37.201829 172.966348,51.9518268 163.88226,61.037401 L152.195804,72.722795 L168.722806,72.722795 C181.569735,72.722795 192,83.1539086 192,96.0002016 C192,108.846495 181.569735,119.277608 168.722806,119.277608 L152.195804,119.277608 L163.88226,130.963002 C172.966348,140.048576 172.966348,154.798574 163.88226,163.882026 C154.797959,172.9676 140.047536,172.9676 130.963448,163.882026 L119.276993,152.196632 L119.276993,168.722997 C119.276993,181.56929 108.84694,192.000403 96.0000106,192.000403 C83.1528686,192.000403 72.7228162,181.56929 72.7228162,168.722997 L72.7228162,152.196632 L61.0365733,163.882026 C51.9522725,172.9676 37.2018502,172.9676 28.1177617,163.882026 C19.0334609,154.798574 19.0334609,140.048576 28.1177617,130.963002 L39.8040045,119.277608 Z" id="Fill-2" fill="#FF8000"></path>
        <path d="M97.3026795,50.5171508 C121.19619,50.5171508 140.594878,69.9149897 140.594878,93.8099861 C140.594878,117.70286 121.19619,137.102821 97.3026795,137.102821 C73.4089564,137.102821 54.0102686,117.70286 54.0102686,93.8099861 C54.0102686,69.9149897 73.4089564,50.5171508 97.3026795,50.5171508 Z" id="Fill-6" fill="#FFC266"></path>
        <path d="M74.8296253,85.3568579 C73.3790319,84.5779731 72.8333881,82.7676496 73.6118485,81.3181175 C74.3900965,79.866463 76.1997833,79.3210314 77.6503766,80.0999162 L90.6864035,87.0950231 C91.6596911,87.6171093 92.2647594,88.6358142 92.2586512,89.7394112 C92.25245,90.8451304 91.6363458,91.8553461 90.6571157,92.3668209 L77.7707112,99.0987623 C76.3116286,99.862791 74.5080965,99.2961364 73.7459779,97.8359927 C72.9836471,96.3779713 73.5494528,94.5740148 75.0085353,93.8121084 L82.9020126,89.6884759 L74.8296253,85.3568579 Z" id="Fill-7" fill="#000000"></path>
        <path d="M116.95477,80.0999162 C118.405363,79.3210314 120.21505,79.866463 120.993298,81.3181175 C121.771759,82.7676496 121.226115,84.5779731 119.775521,85.3568579 L111.703134,89.6884759 L119.596611,93.8121084 C121.055694,94.5740148 121.6215,96.3779713 120.859169,97.8359927 C120.09705,99.2961364 118.293518,99.862791 116.834436,99.0987623 L103.948031,92.3668209 C102.968801,91.8553461 102.352697,90.8451304 102.346496,89.7394112 C102.340387,88.6358142 102.945456,87.6171093 103.918743,87.0950231 L116.95477,80.0999162 Z" id="Fill-8" fill="#000000"></path>
    </g>
</svg>
